packages/icons/src/components/Icon/assets/small-outline/hand.svg

<svg width="16" height="16" viewBox="0 0 16 16" fill="none" xmlns="http://www.w3.org/2000/svg">
<path d="M8.31152 7.54492V2.58105C8.31141 2.42459 8.17058 2.25016 7.93652 2.25C7.70227 2.25 7.56066 2.42451 7.56055 2.58105V3.4834L7.6084 7.08105C7.61294 7.42618 7.33634 7.7093 6.99121 7.71387C6.64626 7.71824 6.36302 7.44264 6.3584 7.09766L6.31055 3.5V3.49219C6.31055 3.33568 6.16966 3.16133 5.93555 3.16113C5.7012 3.16113 5.55957 3.3356 5.55957 3.49219V8C5.55957 8.34518 5.27975 8.625 4.93457 8.625C4.58942 8.62497 4.30957 8.34516 4.30957 8V5.31348L4.30273 5.25391C4.27238 5.1158 4.13919 4.98262 3.93457 4.98242C3.70022 4.98242 3.55859 5.15689 3.55859 5.31348V10.2764C3.55859 11.1662 4.05245 12.026 4.88574 12.6846C5.7177 13.342 6.83311 13.75 7.93652 13.75C10.6609 13.7498 11.8095 11.8425 12.25 10.7588C12.3952 10.4016 12.4414 9.99053 12.4414 9.51953V7.62207C12.3157 7.59698 12.1782 7.62977 12.083 7.7207C11.7365 8.05202 11.5667 8.48032 11.5645 8.90234V9.82129C11.5645 10.1663 11.2845 10.446 10.9395 10.4463C10.5943 10.4464 10.3145 10.1665 10.3145 9.82129L10.3125 3.49219C10.3125 3.33566 10.1717 3.16127 9.9375 3.16113C9.73253 3.16113 9.59866 3.29434 9.56836 3.43262L9.56152 3.49219V7.54492C9.56137 7.88997 9.28161 8.16992 8.93652 8.16992C8.59153 8.16982 8.31167 7.88991 8.31152 7.54492ZM11.5625 6.56641C12.1779 6.22961 12.9706 6.3125 13.498 6.81641C13.6214 6.93432 13.6914 7.0979 13.6914 7.26855V9.51953C13.6914 10.0555 13.6422 10.6539 13.4082 11.2295C12.8935 12.4958 11.4219 14.9998 7.93652 15C6.54178 15 5.15511 14.4908 4.11035 13.665C3.06695 12.8404 2.30859 11.6499 2.30859 10.2764V5.31348C2.30859 4.41382 3.06378 3.73242 3.93457 3.73242C4.06287 3.73246 4.18836 3.74822 4.30957 3.77637V3.49219C4.30957 2.59253 5.06475 1.91113 5.93555 1.91113C6.10637 1.91117 6.27263 1.93733 6.42969 1.98633C6.6749 1.39784 7.27157 1 7.93652 1C8.6013 1.00013 9.19718 1.398 9.44238 1.98633C9.59965 1.93723 9.76643 1.91113 9.9375 1.91113C10.8082 1.91127 11.5625 2.59263 11.5625 3.49219V6.56641Z" />
</svg>

<svg xmlns="http://www.w3.org/2000/svg" width="16" height="16" fill="none" viewBox="0 0 16 16">
    <path d="M8.312 7.545V2.58c0-.156-.141-.33-.375-.331-.235 0-.376.175-.376.331v.902l.047 3.598a.625.625 0 0 1-1.25.017L6.311 3.5v-.008c0-.156-.141-.33-.375-.33s-.376.174-.376.33V8a.625.625 0 1 1-1.25 0V5.313l-.007-.06c-.03-.137-.164-.27-.368-.27-.235 0-.376.174-.376.33v4.963c0 .89.493 1.75 1.327 2.409a5.03 5.03 0 0 0 3.05 1.065c2.725 0 3.874-1.908 4.314-2.991.145-.357.191-.768.191-1.24V7.623a.4.4 0 0 0-.358.099c-.347.331-.516.76-.518 1.181v.92a.625.625 0 0 1-1.25 0l-.002-6.33c0-.156-.141-.33-.376-.33-.204 0-.338.132-.369.27l-.006.06v4.053a.625.625 0 0 1-1.25 0m3.25-.979a1.66 1.66 0 0 1 1.936.25.63.63 0 0 1 .193.453v2.25c0 .537-.049 1.135-.283 1.71-.514 1.267-1.986 3.77-5.471 3.77a6.3 6.3 0 0 1-3.827-1.335c-1.043-.825-1.8-2.015-1.8-3.389V5.313c0-.9.755-1.58 1.626-1.58q.192 0 .375.043v-.284c0-.9.755-1.58 1.626-1.58q.257 0 .494.074A1.63 1.63 0 0 1 7.937 1c.664 0 1.26.398 1.505.986q.238-.074.495-.075c.871 0 1.626.682 1.626 1.581z"/>
</svg>
